images_sukapura_svg/cmd/sc_spelling.svg

<svg viewBox="0 0 16 16" xmlns="http://www.w3.org/2000/svg"><g fill="#69696e" stroke-width=".343784"><path d="m6.404929 8.0372986h-3.786998l-.7923151 2.2762274h-1.76592286l3.69299446-9.77636341h1.5241996l3.699709 9.77636341h-1.7726374zm-3.310266-1.3697652h2.833534l-1.416767-4.0555794z"/><path d="m10 0v10.314453h1.050782l.484375-.5703124.02148-.2167968c.0263.03399.05848.057738.08594.089844l.615236-.7226566c-.264964-.1575431-.475698-.3945497-.626953-.7226562v-2.9941406c.286487-.6177373.413829-.9277344 1.121093-.9277344.52821 0 .93145.1978775 1.208985.5917969.225799.3204896.354393.7781377.396484 1.359375.145254-.077468.299153-.1409786.464844-.1777344.0033-.000667.0065-.00132.0098-.00195.219415-.046218.446025-.045171.650391-.00586h.002c.185199.035913.349231.097337.498047.1757812-.061052-.9529666-.297586-1.7252396-.732504-2.2910181-.505828-.6580244-1.201572-.9863281-2.087891-.9863281-.796792 0-1.061232.276963-1.531249.8320313v-3.7460938z"/></g><path d="m15.291698 7.0118053c-.08045-.015575-.163987-.01645-.249867.00164-.183019.0406-.35168.1463864-.470341.2950811l-5.252126 6.1698766-1.8813593-1.931437c-.3146717-.32309-.8872488-.323066-1.2019794 0-.3146887.323073-.3147137.910865 0 1.233975l2.5084787 2.575247.65325.643812.5748598-.697463 5.8531172-6.8673289c.415147-.4639881.0291-1.3148091-.534033-1.423429z" fill="#32d74b"/></svg>

<?xml version="1.0" encoding="UTF-8" standalone="no"?>
<svg
   xmlns:dc="http://purl.org/dc/elements/1.1/"
   xmlns:cc="http://creativecommons.org/ns#"
   xmlns:rdf="http://www.w3.org/1999/02/22-rdf-syntax-ns#"
   xmlns:svg="http://www.w3.org/2000/svg"
   xmlns="http://www.w3.org/2000/svg"
   xmlns:sodipodi="http://sodipodi.sourceforge.net/DTD/sodipodi-0.dtd"
   xmlns:inkscape="http://www.inkscape.org/namespaces/inkscape"
   viewBox="0 0 16 16"
   version="1.1"
   id="svg8"
   sodipodi:docname="sc_spelling.svg"
   inkscape:export-filename="/home/rizmut/Documents/Rizmut/Github/libreoffice-style-sukapura/images_sukapura/cmd/sc_spelling.png"
   inkscape:export-xdpi="96"
   inkscape:export-ydpi="96"
   inkscape:version="0.92.3 (2405546, 2018-03-11)">
  <metadata
     id="metadata14">
    <rdf:RDF>
      <cc:Work
         rdf:about="">
        <dc:format>image/svg+xml</dc:format>
        <dc:type
           rdf:resource="http://purl.org/dc/dcmitype/StillImage" />
      </cc:Work>
    </rdf:RDF>
  </metadata>
  <defs
     id="defs12" />
  <sodipodi:namedview
     pagecolor="#ffffff"
     bordercolor="#666666"
     borderopacity="1"
     objecttolerance="10"
     gridtolerance="10"
     guidetolerance="10"
     inkscape:pageopacity="0"
     inkscape:pageshadow="2"
     inkscape:window-width="1366"
     inkscape:window-height="685"
     id="namedview10"
     showgrid="true"
     inkscape:zoom="20.85965"
     inkscape:cx="11.91839"
     inkscape:cy="9.26679"
     inkscape:window-x="0"
     inkscape:window-y="0"
     inkscape:window-maximized="1"
     inkscape:current-layer="svg8">
    <inkscape:grid
       type="xygrid"
       id="grid821" />
  </sodipodi:namedview>
  <g
     aria-label="Ab"
     style="font-style:normal;font-weight:normal;font-size:13.75136852px;line-height:1.25;font-family:sans-serif;letter-spacing:-0.30000001px;word-spacing:0px;fill:#69696e;fill-opacity:1;stroke:none;stroke-width:0.34378421"
     id="text825">
    <path
       d="M 6.404929,8.0372986 H 2.617931 L 1.8256159,10.313526 H 0.05969304 L 3.7526875,0.53716259 H 5.2768871 L 8.9765961,10.313526 H 7.2039587 Z M 3.094663,6.6675334 H 5.928197 L 4.51143,2.611954 Z"
       style="font-style:normal;font-variant:normal;font-weight:500;font-stretch:normal;font-family:Roboto;-inkscape-font-specification:'Roboto Medium';letter-spacing:-0.30000001px;fill:#69696e;fill-opacity:1;stroke-width:0.34378421"
       id="path831" />
    <path
       style="font-style:normal;font-variant:normal;font-weight:500;font-stretch:normal;font-family:Roboto;-inkscape-font-specification:'Roboto Medium';letter-spacing:-0.30000001px;fill:#69696e;fill-opacity:1;stroke-width:0.34378421"
       d="m 10,0 v 10.314453 h 1.050782 l 0.484375,-0.5703124 0.02148,-0.2167968 c 0.0263,0.03399 0.05848,0.057738 0.08594,0.089844 L 12.257813,8.8945312 C 11.992849,8.7369881 11.782115,8.4999815 11.63086,8.171875 V 5.1777344 C 11.917347,4.5599971 12.044689,4.25 12.751953,4.25 c 0.52821,0 0.93145,0.1978775 1.208985,0.5917969 0.225799,0.3204896 0.354393,0.7781377 0.396484,1.359375 0.145254,-0.077468 0.299153,-0.1409786 0.464844,-0.1777344 0.0033,-6.67e-4 0.0065,-0.00132 0.0098,-0.00195 0.219415,-0.046218 0.446025,-0.045171 0.650391,-0.00586 h 0.002 c 0.185199,0.035913 0.349231,0.097337 0.498047,0.1757812 C 15.921452,5.2384421 15.684918,4.4661691 15.25,3.9003906 14.744172,3.2423662 14.048428,2.9140625 13.162109,2.9140625 c -0.796792,0 -1.061232,0.276963 -1.531249,0.8320313 V 0 Z"
       id="path833"
       inkscape:connector-curvature="0"
       sodipodi:nodetypes="cccccccccscccccccssccc" />
  </g>
  <path
     d="m15.291698 7.0118053c-.08045-.015575-.163987-.01645-.249867.00164-.183019.0406-.35168.1463864-.470341.2950811l-5.252126 6.1698766-1.8813593-1.931437c-.3146717-.32309-.8872488-.323066-1.2019794 0-.3146887.323073-.3147137.910865 0 1.233975l2.5084787 2.575247.65325.643812.5748598-.697463 5.8531172-6.8673289c.415147-.4639881.0291-1.3148091-.534033-1.423429z"
     fill="#32d74b"
     id="path6" />
</svg>
